!!!!SEGMENT: pl-wumfc--r254--002_paderewski-ignacy-jan--krakowiak-i.krn
!!!cenid: 18xx:3145
!!!COM: Paderewski, Ignacy Jan
!!!COM-rismid: pe30029943
!!!CDT: 1860/11/18-1941/06/29
!!!CNT: Polish
!!!OTL: Krakowiak I
!!!PDT: 1881-02-20
!!!AGN:
!!!SMS-siglum: PL-Wumfc
!!!SMS-shelfmark: R254
!!!SMS-shelfwork: 002 W
!!!SMS-variant:
!!!SMS-altvar:
!!!NIFC-rismid: 1001156114
!!!URL-scan: http://repozytorium.nifc.pl/skany/pl-wumfc--r254
!!!ONB-nifc: UWAGA: w zbiorze: 1. Tobie (skan 0001-0002), 2. Krakowiak I (skan 0002-0003), 3. Krakowiak II (skan 0003, prawa strona)
!!!key: E
!!!OMD: Allegretto.
**kern	**dynam	**kern	**dynam
*group1	*	*group1	*
*part1	*part1	*part1	*part1
*staff2	*	*staff1	*
*I"[Piano]	*	*I"[Piano]	*
*Ipiano	*	*Ipiano	*
*ICklav	*	*IClav	*
*clefF4	*	*clefG2	*
*k[f#c#g#d#]	*	*k[f#c#g#d#]	*
*E:	*	*E:	*
*M2/4	*	*M2/4	*
=1	=1	=1	=1
*^	*	*^	*
!	!	!	!	!	!LO:DY:B:t=p.
8r	2EE\	.	[>2B</	(>4G#<\	p <
4BB\	.	.	.	.	.
.	.	.	.	8A<\L	.
8BB\	.	.	.	8F#<\J)	.
=2	=2	=2	=2	=2	=2
8r	2EE\	.	2B</_>	8G#<\L	.
4BB\	.	.	.	8G#<'>\	.
.	.	.	.	8A<'>\	.
8BB\	.	.	.	8F#<'>\J	[
=3	=3	=3	=3	=3	=3
8r	2EE\	.	2B</_>	8G#<\L	.
4BB\	.	.	.	8B<\	.
.	.	.	.	16A<\L	.
.	.	.	.	16G#<\J	.
8BB\	.	.	.	8F#<\J	.
=4	=4	=4	=4	=4	=4
8r	2EE\	.	2B</_>	8G#</L	.
4BB\	.	.	.	8E</	>
.	.	.	.	8F#</	.
8BB\	.	.	.	8BB</J	.
=5	=5	=5	=5	=5	=5
8r	2EE\	.	2B</_>	8G#</L	.
4BB\	.	.	.	8E</J	.
.	.	.	.	4F#</	]
8BB\	.	.	.	.	.
=6	=6	=6	=6	=6	=6
!	!	!	!LO:TX:a:t=rit.	!	!LO:DY:B:t=pp.
8r	2EE\	.	2B</_>	8G#</L	pp
4BB\	.	.	.	8E</J	.
.	.	.	.	4F#</	.
8BB\	.	.	.	.	.
=7	=7	=7	=7	=7	=7
8r	4EE\	.	(>8B</]	8G#<\	.
!	!	!	!LO:TX:a:t=vivo e leggiero.	!	!LO:DY:a
8BB\	.	.	8B/L	8G#'\	pp
8r	4EE\	.	8B/	4A\	.
8B\	.	.	16c#/L	.	.
.	.	.	16d#/JJ	.	.
=8	=8	=8	=8	=8	=8
8ryy	4EE\ 4BB	.	8e/L	8G#\L	.
8B/	.	.	8g#/J	8e\J	.
8r	4EE\	.	4b/)	4g#\	<
8B/	.	.	.	.	.
*	*	*	*v	*v	*
=9	=9	=9	=9	=9
8r	2EE\	.	(>8.a/L 8.cc#/	.
(>4BB/	.	.	.	.
.	.	.	16g#/Jk 16b/	[
.	.	.	8a/L 8cc#/	.
8B/)	.	.	8f#/J 8a/	.
=10	=10	=10	=10	=10
8r	2EE\	.	8d#/L 8f#/	.
(>4BB/	.	.	8d#/J 8f#/	.
.	.	.	4a/ 4cc#/	.
8B/)	.	.	.	.
=11	=11	=11	=11	=11
8r	2EE\	.	8.g#/L (>/8.b)	<
(>4BB/	.	.	.	.
.	.	.	16e/K 16g#/	.
.	.	.	8G#/ 8e/	.
8B\)	.	.	8c#/J 8a/	.
!!LO:LB:g=original
=12	=12	=12	=12	=12
*	*	*	*^	*
8r	2BBB\	.	(8B/L 8g#/	4ryy	>
4BB/	.	.	8G#/ 8e#X/	.	.
.	.	.	8f#/	4c#\	.
8BB/	.	.	8c#/J	.	]
=13	=13	=13	=13	=13	=13
!	!	!	!LO:TX:a:t=|:problem	!	!
8r	4EE\ 4BB\	.	8B/)	8G#\)	.
8B\	.	.	(>8B/L	8G#\	.
8r	4EE\ 4BB\	.	8B^>/	4A\	.
8B\	.	.	16c#/L	.	<
.	.	.	16d#/JJ	.	.
=14	=14	=14	=14	=14	=14
8r	4EE\ 4BB\	.	8e/L	8G#\L	.
8B\	.	.	8g#/J	8e\J	.
!	!LO:TX:t=P:problem:4\middle	!	!	!	!
8r	4EE\ 4BB\	.	4b/)	4g#\	.
8B\	.	.	.	.	[
*	*	*	*v	*v	*
=15	=15	=15	=15	=15
8r	2GGG#\	.	8.b/L 8.dd#/	.
4D#/ 4G#/ 4B/	.	.	.	.
!	!	!	!	!LO:HP:i:t=cres.
.	.	.	16a#X/Jk 16cc##X/	<
.	.	.	8b/L 8dd#/	.
8G#/ 8B/ 8d#/	.	.	8g#/J 8b/	.
=16	=16	=16	=16	=16
8r	2GGG#\	.	8B/L 8d#/ 8g#/	.
8G#\ 8d#\	.	.	8b/J 8dd#	.
!	!	!	!	!LO:DY:rj
4G#;>/ 4d#/ 4g#/	.	.	4b;>/ 4dd#/ 4bb/	f
=17	=17	=17	=17	=17
8r	2CC#\	.	8.b/L 8.ee/ 8.bb/	.
4E/ 4G# 4c#	.	.	.	.
.	.	.	16a#X/Jk 16ee/ 16aa#X/	.
!	!	!	!	!LO:DY:rj
.	.	.	8b/L 8ee/ 8bb/	ff
8G#/ 8c# 8e	.	.	8g#/J 8ee 8gg#	.
=18	=18	=18	=18	=18
*	*^	*	*	*
8r	2CC#\	8ryy	.	8b/ 8ee/ 8bb/	>
4G#\	.	8e/	.	(>8dd#\L 8bb\	.
.	.	4e#X/	.	8cc#\ 8aa#X\	.
8c#\	.	.	.	8b\J) 8gg#\	.
=19	=19	=19	=19	=19	=19
(<8f#/L	2FFF#\	8r	.	8a#X/L 8ff#/	.
8en/	.	8ryy	.	8g#/J 8cc#	.
8c#/	.	4ryy	.	8g#/L 8a#/ 8ee/	.
8F#/J)	.	.	.	16f#/L [>16a# 16dd#	.
.	.	.	.	16e/JJ 16a#/] 16cc#/	]
*	*v	*v	*	*	*
=20	=20	=20	=20	=20
8r	4BBB\	.	4d#/ 4b/	.
(>8F#^</L	.	.	.	.
!LO:TX:a:t=|:problem	!	!	!	!
8B/J)	4ryy	.	4r	.
8r	.	.	.	.
=21	=21	=21	=21	=21
8.r	2BBB\	.	8.r	.
!	!	!	!	!LO:DY:rj
(>16E/ 16A/ 16c#/	.	.	(>16cc#/ 16aa/ 16ccc#/	ff
!	!	!	!LO:TX:b:i:t=rapido	!
4A/) 4c#/ 4e^>/	.	.	4ee/) 4ccc#/ 4eee^>/	.
=22	=22	=22	=22	=22
8.r	2BBB\	.	8.r	.
(>16B\ 16d#\ 16g#\	.	.	(>16gg#/ 16ddd#/ 16ggg#/	.
!	!	!	!	!LO:DY:rj
4BB;>/) 4G#/	.	.	4B;>/) 4d#/ 4g#/	ff
!!LO:LB:g=original
=23	=23	=23	=23	=23
!	!	!	!LO:TX:b:t=dolce	!
8r	2BBB\	.	(>8.d#/L 8.f#/	.
(>4BB/	.	.	.	.
.	.	.	16e/Jk 16g#/	.
.	.	.	8f#/L 8a/	.
8B/)	.	.	8d#/J 8a/ 8cc#/	.
=24	=24	=24	=24	=24
.	.	.	8qqa/ 8qqcc#/	.
8r	2EE\	.	8.g#/L 8.b/	.
(>8BB/L	.	.	.	.
.	.	.	16f#/Jk 16a#X/	.
8E/	.	.	8g#/L 8b/	.
8B/J)	.	.	8e/J) 8g#/	.
=25	=25	=25	=25	=25
8r	2AAA\	.	(>8.a\L 8.cc#\	p
*ped	*	*	*	*
8E/ 8A/ 8c#/	.	.	.	.
.	.	.	16b\Jk 16dd#\	<
4A\ 4c#\ 4e\	.	.	8cc#\L 8ee\	.
*Xped	*	*	*	*
.	.	.	8dd#\J 8ff#\	.
=26	=26	=26	=26	=26
8r	2EE\	.	2g#;>\) 2ee\ 2gg#\	[
*ped	*	*	*	*
(>8G#/ 8B/	.	.	.	.
*Xped	*	*	*	*
4e/)	.	.	.	.
=27	=27	=27	=27	=27
8.r	2AA\	.	8.r	.
*ped	*	*	*	*
!	!	!	!	!LO:DY:rj
(>16A\ 16cn\	.	.	(>16e/ 16a/ 16ccn/	f
*Xped	*	*	*	*
4c^>\) 4e\	.	.	4a^>\) 4cc\ 4ee\	.
=28	=28	=28	=28	=28
8.r	2AAA\	.	8.r	.
!	!	!	!LO:TX:b:t=rapid.	!
*ped	*	*	*	*
(>16A\ 16e\ 16a\	.	.	(>16ccn\ 16aa\	.
*Xped	*	*	*	*
4AA^>;>\) 4E\ 4A\	.	.	4cn^>;>/) 4a/	.
=29	=29	=29	=29	=29
!	!	!	!LO:TX:a:t=dolore	!LO:DY:B:t=piano.
8r	2AAA\	.	(>8.a\L 8.ccn\	p
!LO:TX:b:t=rallent.	!	!	!	!
4E/ 4A/ 4cn/	.	.	.	.
.	.	.	16b\Jk 16dd#\	.
.	.	.	8cc\L 8ee\	.
8A/ 8c/ 8e/	.	.	8a\J 8cc\	.
=30	=30	=30	=30	=30
8r	[<2EE\	.	8g#/L 8b/	.
4BB/	.	.	8e/J 8g#/	.
.	.	.	4G#/ 4e/	.
[<8BB/ [>/8B	.	.	.	.
=31	=31	=31	=31	=31
!	!	!	!LO:TX:a:t=agitato e poco crescendo	!
8BB/] 8B/]	2EE\_<	.	8.g#/L) 8.b/	<
4BB/ 4B/	.	.	.	.
.	.	.	16e/Jk 16g#/	.
.	.	.	8G#/L 8e/	.
[<8BB/ [>/8B	.	.	8e/J 8g#/	.
=32	=32	=32	=32	=32
.	.	.	8qqg#/	.
8BB/] 8B/]	2EE\]	.	8.A/L 8.f#/	.
4BB/ 4B/	.	.	.	.
.	.	.	16A/Jk 16d#/	.
.	.	.	4A/ 4B/	[
8BB/ 8B/	.	.	.	.
=33	=33	=33	=33	=33
8r	2EE^>\	.	8.G#/L 8.b/	<
4BB/ 4B/	.	.	.	.
.	.	.	16e/Jk 16a/	.
.	.	.	8G#/L 8e/	.
8BB/ 8B/	.	.	8e/J 8g#/	[[
!!LO:LB:g=original
=34	=34	=34	=34	=34
.	.	.	8qqg#/	<
8r	2EE\	.	8.A/L 8.f#/	.
4BB\ 4B\	.	.	.	.
.	.	.	16A/Jk 16d#/	.
.	.	.	4A/ 4B/	.
8BB\ 8B\	.	.	.	[[
=35	=35	=35	=35	=35
*	*	*	*^	*
!	!LO:TX:t=P:problem:4\middle	!	!	!	!
8r	4EE\ 4BB\	.	8r	4ryy	.
8B/	.	.	(>8G#/L 8B/	.	.
!	!	!	!	!	!LO:DY:a:rj:t=f.
8r	4EE\ 4BB\	.	8B/	4A\	f <
8B/	.	.	16c#/L	.	.
.	.	.	16d#/JJ	.	.
*	*	*	*v	*v	*
=36	=36	=36	=36	=36
*	*^	*	*	*
!	!	!	!	!LO:TX:a:t=giojoso	!
8r	2EEE\	4ryy	.	8G#/L 8e/	.
8B/	.	.	.	8g#/J)	.
8r	.	4BB\	.	4g#/ 4b/	.
8B/	.	.	.	.	[[
*	*v	*v	*	*	*
=37	=37	=37	=37	=37
8r	2EE\	.	(>8.a/L 8.cc#/	.
4D#/ 4F#/ 4B/	.	.	.	.
.	.	.	16g#/Jk 16b/	.
.	.	.	8a/L 8cc#/	.
8F#/ 8B/ 8d#/	.	.	8f#/J 8a/	.
*v	*v	*	*	*
=38	=38	=38	=38
*8ba	*	*	*
*^	*	*	*
8r	2EEE\	.	8d#/L 8f#/	.
*X8ba	*	*	*	*
4BB/	.	.	8d#/J 8f#/	.
.	.	.	4a/) 4cc#/	.
8A/ 8B/ 8d#/	.	.	.	.
=39	=39	=39	=39	=39
8r	2EE\	.	(>8.g#/L 8.b/	.
8BB/	.	.	.	.
!	!	!	!	!LO:DY:t=forte
.	.	.	16e/Jk 16g#/	f
4E/ 4G#/ 4B/	.	.	8G#/L 8e/	.
.	.	.	8c#/J 8a	.
*v	*v	*	*	*
=40	=40	=40	=40
*^	*	*	*
*	*8ba	*	*	*
8r	2EEE\	.	8B/L 8g#/	.
8BB/	.	.	8G#/ 8e#X/	.
4BB/ 4B/	.	.	8A/ 8f#/	.
.	.	.	8c#/J)	.
*	*X8ba	*	*	*
=41	=41	=41	=41	=41
!	!LO:TX:t=P:problem:4\middle	!	!	!
8r	4EE\	.	8G#/ 8B/	.
8E\ 8G#\ 8B\	.	.	8B^>\L 8b\	.
8r	4DD#\	.	(>8B\ 8b\	.
8F#\ 8B\ 8g#\	.	.	16c#\L 16cc#\	<
.	.	.	16d#\JJ 16dd#\	.
=42	=42	=42	=42	=42
!	!LO:TX:t=P:problem:4\middle	!LO:DY:a	!	!
8r	4CC#\	ff	8e\L 8ee\	.
8G#\ 8c#\ 8e\	.	.	8g#\J 8gg#\	.
8r	4GGG#\	.	4b\) 4bb\	.
8G#\ 8B\ 8e\	.	.	.	[[
=43	=43	=43	=43	=43
!	!	!	!LO:TX:t=P:problem:8\middle	!
8r	2AAA\ 2AA\	.	(>8.ee\L 8.ccc#\ 8.eee\	.
8E/ 8A/ 8c#/	.	.	.	.
!	!	!	!	!LO:DY:rj
.	.	.	16dd#\Jk 16bb\ 16ddd#\	ff
4A/ 4c#/ 4e/	.	.	8ee\L 8ccc#\ 8eee\	.
.	.	.	8cc#\J 8aa\ 8ccc#\	.
=44	=44	=44	=44	=44
8r	2AAA\ 2AA\	.	8a\L 8cc#\ 8aa\	.
!LO:TX:a:t=rit.	!	!	!	!
(>4E^>/ 4A/ 4c#/	.	.	8a\J 8cc#\ 8aa\	.
!	!	!LO:DY:b	!	!
.	.	ff	4ee;>\) 4ccc#\ 4eee\	.
8A;>/) 8c#/ 8e/	.	.	.	.
!!LO:LB:g=original
=45	=45	=45	=45	=45
!	!	!	!LO:TX:t=P:problem:8\middle	!
8r	2GGGn\ 2GGn\	.	(>8.ee\L 8.bb\ 8.eee\	f
4E\ 4Gn\ 4B\	.	.	.	.
.	.	.	16dd#\K 16ddd#\	.
!	!	!	!LO:TX:t=P:problem:8\right	!
.	.	.	8ee\J 8eee\	.
8G\ 8B\ 8e\	.	.	8e/) 8ee/	.
=46	=46	=46	=46	=46
8r	2FFF#\ 2FF#\	.	8.ee\L 8.aa\ 8.ccc#\ 8.eee\	ff
8E/ 8A/ 8c#/	.	.	.	.
!	!	!	!LO:TX:t=P:problem:16\right	!
.	.	.	16dd#\K 16ddd#\	.
4A/ 4c#/ 4e/	.	.	8ee\ 8aa\ 8ccc#\ 8eee\	.
!	!	!	!LO:TX:t=P:problem:8\middle	!
.	.	.	8cc#\J 8ee\ 8aa\ 8ccc#\	.
=47	=47	=47	=47	=47
8r	2BBB\	.	(>8a\L 8cc#\ 8aa\	.
!	!	!	!LO:TX:t=P:problem:16\right	!
4F#\ 4A\ 4c#\	.	.	16b\L 16bb\	.
!	!	!	!LO:TX:t=P:problem:16\right	!
.	.	.	16a\JJ 16aa\	.
.	.	.	8g#\L 8dd#\ 8gg#\	.
8F#\ 8A\ 8d#\	.	.	8f#\J) 8ff#\	.
=48	=48	=48	=48	=48
8r	2EEE\ 2EE\	.	(>4e/ 4g#/ 4b/ 4ee/	ff
(>8E\	.	.	.	.
!LO:TX:t=P:problem:4\middle	!	!	!LO:TX:t=P:problem:4\middle	!
4G#;>\) 4B\ 4e\ 4g#\	.	sf	4ee;>\) 4gg#\ 4bb\ 4eee\	.
*v	*v	*	*	*
=49||	=49||	=49||	=49||
!	!	!LO:TX:a:t=Vivace scherzoso.	!
8qFF##X/	.	.	.
!	!	!	!LO:DY:t=piano
2CC#\ 2GG#\	.	2r	p
=50	=50	=50	=50
8qFF##X/	.	.	.
2CC#\ 2GG#\	.	2r	.
=51	=51	=51	=51
8qFF##X/	.	.	.
[<2CC#\ [>\2GG#	.	(>8..ee^>\L 8..gg#\	.
.	.	32dd#\Jkk 32ff##X\	pp
!	!	!LO:TX:a:t=|:problem	!
.	.	8ee\L) 8gg#\	.
!	!	!LO:TX:a:t=|:problem	!
.	.	8cc#\J 8ee\	.
=52	=52	=52	=52
2CC#\_< 2GG#\_>	.	8b#X'>\L 8dd#\	.
.	.	8g#'>\ 8b#\	.
.	.	8d#'>\ 8g#\	.
.	.	8B#X\J 8d#\ 8g#\	.
=53	=53	=53	=53
2CC#\_< 2GG#\_>	.	(>8..a^>\L 8..cc#\	.
.	.	32g#\KK 32b\	.
!	!	!LO:TX:a:t=|:problem	!
.	.	8a\) 8cc#\	.
!	!	!LO:TX:a:t=|:problem	!
.	.	8f#\J 8a\	.
=54	=54	=54	=54
!	!	!LO:TX:a:t=|:problem	!
2CC#\] 2GG#\]	.	8e/L 8g#/	.
.	.	8c#'>/J 8e/	.
.	.	4E/ 4c#/	.
=55	=55	=55	=55
8qFF##X/	.	.	.
[<2CC#\ (>\2GG#	.	(<8..e/L 8..g#/	.
.	.	32d#/Jkk 32f##X/	.
.	.	8e/L) 8g#/	.
.	.	8c#'</J 8e/	.
!!LO:LB:g=original
=56	=56	=56	=56
*^	*	*^	*
2AA/	2CC#\_<	.	(>8d#/L	2F##X\	.
!	!	!	!	!	!LO:HP:i:t=crescendo
.	.	<	8c#/J	.	<
.	.	.	8e/L	.	.
.	.	.	8e/J)	.	.
=57	=57	=57	=57	=57	=57
4AA#X/	2CC#\_<	.	8.d#/L	2F##X\	.
.	.	.	(>16c#/K	.	.
4BB/	.	.	8e/	.	.
.	.	.	8e/J	.	.
=58	=58	=58	=58	=58	=58
4BB#X/)	4CC#\]	[	8d#/L	4G#\	.
.	.	.	[>8B#X/J	.	.
4D#/	4GG#\	.	4B#/])	4G#\	.
*	*	*	*v	*v	*
=59	=59	=59	=59	=59
(>4GG#/	2CC#\	.	(>8..ee\L 8..gg#\	.
.	.	<	32dd#\Jkk 32ff##X\	.
!LO:TX:b:i:t=marcato il basſo.	!	!	!	!
!	!	!	!LO:TX:a:t=|:problem	!
4C#/	.	.	8ee\L) 8gg#\	.
!	!	!	!LO:TX:a:t=|:problem	!
.	.	[[	8cc#\J 8ee\	.
=60	=60	=60	=60	=60
4D#/	2GG#\	.	8g#/ 8b#X'>/L 8dd#/	.
.	.	>	8g#'>/ 8b#/	.
4G#/)	.	.	8d#'>/ 8g#/	.
.	.	]]	8B#X'>/J 8d#/ 8g#/	.
=61	=61	=61	=61	=61
(>4C#/	2FF#\	<	8..a/L 8..cc#/	.
.	.	.	32g#/Jkk 32b/	.
4F#/	.	.	8a/L 8cc#/	.
.	.	[[	8f#/J 8a/	.
=62	=62	=62	=62	=62
4G#/	2C#\	>	8..e/L 8..g#/	.
.	.	.	32d#/Jkk	.
4c#/)	.	.	8e/L	.
.	.	.	8f#/J	.
=63	=63	=63	=63	=63
*	*	*	*^	*
2G#/	2C#\	]	8.g#/L	2e\	.
.	.	.	16f#/Jk	.	<
.	.	.	8g#/L	.	.
.	.	.	8a/J	.	.
=64	=64	=64	=64	=64	=64
2Gn\	[<2Dn\	.	8b/L	[>4dn\	[
.	.	.	8ccn/J	.	.
.	.	.	[>4ddn/	8d\L]	.
!	!	!	!	!	!LO:HP:i:t=cres
.	.	.	.	8e\J	<
=65	=65	=65	=65	=65	=65
!	!	!	!LO:TX:b:i:t=rit.	!	!
4G#X/	2D\]	.	(>8dd/L]	4e#X\	.
.	.	.	8ee/	.	.
8A/L	.	.	8ddn/	4f#\	.
8cn/J	.	.	8a/J)	.	.
!!LO:PB:g=original
=66	=66	=66	=66	=66	=66
4B/	8.GGn\L	.	4b/	4gn\	.
.	16Dn\Jk	.	.	.	.
4r	8Gn\L	.	4r	4ryy	.
.	8A\J	.	.	.	.
=67	=67	=67	=67	=67	=67
8.B/L	2Gn\	.	2ddn/	4.dn\	<
16A#X/Jk	.	.	.	.	.
8B/L	.	.	.	.	.
8c#/J	.	.	.	8e\	[[
=68	=68	=68	=68	=68	=68
4dn/	2F#\	.	8.ddn/L	4f#\	.
.	.	.	16cc#/Jk	.	.
4gn/	.	.	8dd/L	4b\	.
.	.	.	8ee/J	.	.
=69	=69	=69	=69	=69	=69
!	!	!	!LO:TX:a:t=rit.	!	!
8f#/L	2F#\	.	8.ff#/L	2a#X\	.
8c#/	.	.	.	.	.
.	.	.	16ggn/Jk	.	.
8f#/	.	.	8ff#/L	.	.
8e/J	.	.	8cc#/J	.	.
=70	=70	=70	=70	=70	=70
4dn/	(>8BB\L	.	[>2ddn/	2b\	.
.	8F#\	.	.	.	.
4r	8B\	.	.	.	.
.	8c#\J)	.	.	.	.
=71	=71	=71	=71	=71	=71
2d#/	(<4B\	.	(>8.dd/L]	2f#\	.
.	.	.	16ee/Jk	.	<
.	4B-X\	.	8ff#'>/L)	.	.
.	.	.	8gg#'>/J	.	.
=72	=72	=72	=72	=72	=72
!	!	!	!	!	!LO:HP:rj:i:t=crescendo
4c#/	2A\	.	(>8.aa/L	4f#\	[ <
.	.	.	16gg#/Jk	.	.
4ryy	.	.	8aa'>/L)	4f#\ 4cc#\	.
.	.	.	8aa#X'>/J	.	.
*v	*v	*	*	*	*
=73	=73	=73	=73	=73
(>2G#^>\)	.	8bb'>/	8f#\ 8dd#\	.
!	!	!LO:TX:b:i:t=rit.	!	!
.	.	(>8bb/L 8dddn/ 8fff#/	8ryy	>
.	.	8ff#/ 8bb/ 8ddd/	4ryy	.
.	.	8ddn/J 8ff#/ 8bb/	.	.
*	*	*v	*v	*
=74	=74	=74	=74
!	!	!LO:TX:b:i:t=ralentando	!
2C#^<\)	.	8b/L 8ddn/ 8ff#/ 8gg#/	.
.	.	8g#/ 8b/ 8ee#X/	.
.	.	8f#/ 8b/ 8dd/	.
.	.	8e#X/J) 8b/ 8cc#/	]
!!LO:LB:g=original
=75	=75	=75	=75
*	*	*^	*
!	!	!	!	!LO:DY:t=pp.
[<2FF#\ 2C#\	.	(<8..aa/L 8..ccc#/	4r	pp
!	!	!LO:TX:b:i:t=piu vivo	!	!
.	.	32gg#/Jkk 32bb/	.	.
!	!	!	!	!LO:DY:t=sf.
.	.	8aa'>/L) 8ccc#/	(<4cc#^>\	sf
.	.	8ff#'>/J 8ccc#/	.	.
=76	=76	=76	=76	=76
2FF#\_<	.	8ddn'>/L 8gg#/	8b\L)	<
.	.	8cc#'>/ 8ff#/	8a'<\	.
.	.	8dd'>/ 8gg#/	8b'<\	.
.	.	8b'>/J 8ee#X/	8g#\J	.
=77	=77	=77	=77	=77
2FF#\_<	.	(>8..cc#/L 8..ff#/	(<8..a\L	.
.	.	32b/Jkk 32ee#X/	32g#\Jkk	.
!	!	!LO:TX:a:t=|:problem	!	!
.	.	8cc#/L) 8ff#/	8a\L)	.
!	!	!LO:TX:b:i:t=poco	!	!
.	.	8a'>/J 8ddn/	8f#'<\J	[[
*	*	*v	*v	*
=78	=78	=78	=78
*^	*	*	*
!LO:TX:t=P:problem:mixedbeam	!	!	!	!
8e#X>\L	2FF#\]	.	2g#^>/ 2cc#/	<
8c#>'>\	.	.	.	.
8G#'>/	.	.	.	.
[>8C#'>^>/J	.	.	.	.
=79	=79	=79	=79	=79
!	!	!	!LO:TX:b:i:t=poco	!
4C#/]	2FF#\	sf	(>8..a/L 8..cc#/	.
.	.	.	32g#/Jkk 32b/	.
!	!	!	!LO:TX:b:i:t=cres-cen-do:problem:dynamics with extention lines	!LO:HP:i:t=cres-cen-do:ext=ud
4d#^>/	.	.	8f#/L) 8a/	<
.	.	.	8a'>/J 8cc#/	.
=80	=80	=80	=80	=80
*	*	*	*^	*
4e/	[<2GG#\	.	8g#/L	[<4g#^>\	.
.	.	.	8cc#/	.	.
4c#/	.	.	8ee/	4g#\]	.
.	.	.	8aa/J	.	[
*	*	*	*v	*v	*
=81	=81	=81	=81	=81
4B#X/	2GG#\]	.	8..g#/L 8..gg#/	<
.	.	.	32a#X/Jkk 32aa#X/	.
[>4g#^>/	.	.	8b#X/L 8bb#X/	.
.	.	.	8cc#/J 8ccc#/	[[
=82	=82	=82	=82	=82
4g#/]	2GG#\	.	8dd#\L 8ddd#\	.
.	.	.	8ee\ 8eee\	f
4g#/	.	.	8ff#\ 8fff#\	.
.	.	.	8ff##X\J 8fff##X\	.
=83	=83	=83	=83	=83
(>8..g#:/L	[<2CC#:\	.	(>4gg#/ 4ccc#/ 4eee/ 4ggg#/	.
32f##X/Jkk	.	.	.	.
!LO:TX:b:i:t=con fuoco	!	!	!	!
8g#/L	.	ff	4ee/ 4gg#/ 4ccc#/ 4eee/	.
8c#'>/J)	.	.	.	.
=84	=84	=84	=84	=84
8d#/L	2CC#\]	.	4b#X/ 4dd#/ 4gg#/ 4bb#X/	.
8B#X/	.	.	.	.
8G#/	.	.	4dd#/) 4gg#/ 4bb#/ 4ddd#/	.
8G#/J	.	.	.	.
!!LO:LB:g=original
=85	=85	=85	=85	=85
(>8..c#/L	[<2CC#\	.	(>4cc#/ 4ff#/ 4aa/ 4ccc#/	.
32B/Jkk	.	.	.	.
8c#'>/L)	.	.	4a/ 4cc#/ 4ff#/ 4aa/	.
8A'>/J	.	.	.	.
=86	=86	=86	=86	=86
!	!	!	!	!LO:DY:rj
8G#'>/L	2CC#\]	.	4e/ 4g#/ 4cc#/ 4ee/	ff
8E'>/J	.	.	.	.
8C#'>/L	.	.	4g#/) 4cc#/ 4ee/ 4gg#/	.
8C#'>/J	.	.	.	.
=87	=87	=87	=87	=87
(>8..D#^>/L	2CC#\ 2GG#\	.	2g#/ 2b#X/ 2dd#/ 2gg#/	.
32E/Jkk	.	.	.	.
8F#'>/L)	.	.	.	.
8F#'>/J	.	.	.	.
=88	=88	=88	=88	=88
!	!	!	!	!LO:DY:rj
8E/L	2CC#\ 2GG#\	.	2g#/ 2cc#/ 2ee/ 2gg#/	ff
8D#/	.	.	.	.
8E/	.	.	.	>
8C#/J	.	.	.	.
=89	=89	=89	=89	=89
(>8..D#/L	[<2CC#\ [>2GG#\	.	4g#/ 4b#X/ 4dd#/ 4gg#/	.
!LO:TX:t=P:problem:trzy nuty dopisane ołówkiem	!	!	!	!
32C#/Jkk	.	.	.	]
8D#/L)	.	.	4B#X/ 4d#/ 4g#/ 4b#/	.
8GG#/J	.	.	.	.
=90	=90	=90	=90	=90
4E/	2CC#\] 2GG#\]	.	8c#/L 8e/ 8g#/ 8cc#/	<
.	.	.	8d#/ 8dd#/	.
4C#/	.	.	8e/ 8ee/	.
.	.	.	8f#/J 8ff#/	[
=91	=91	=91	=91	=91
8..G#/L	[<2CC#\ 2GG#\	.	(>4g#/ 4cc#/ 4ee/ 4gg#/	f
32F##X/Jkk	.	.	.	.
8G#/L	.	.	4e/ 4g#/ 4cc#/ 4ee/	.
8E/J	.	.	.	.
=92	=92	=92	=92	=92
8D#/L	2CC#\]	.	4B#X/ 4d#/ 4g#/ 4b#X/	>
8BB#X/	.	.	.	.
8GG#/	.	.	4d#/) 4g#/ 4b#/ 4dd#/	.
8GG#/J	.	.	.	.
=93	=93	=93	=93	=93
8..C#/L	[<2CC#\	.	(>4c#/ 4f#/ 4a/ 4cc#/	.
(>32BB/Jkk	.	.	.	.
8C#/L	.	.	4A/ 4c#/ 4f#/ 4a/	.
8AA/J	.	.	.	.
=94	=94	=94	=94	=94
8GG#/L	4CC#\]	.	4E/ 4G#/ 4c#/ 4e/	.
8EE/J	.	.	.	]
8CC#/L	4ryy	.	4G#/) 4c#/ 4e/ 4g#/	.
8CC#/J)	.	.	.	.
*v	*v	*	*	*
!!LO:LB:g=original
=95	=95	=95	=95
(>8..DD#\L	.	4r	.
32EE\Jkk	.	.	.
!	!	!	!LO:DY:a
8FF#\L	.	4G#</ 4B#X</ 4d#</ 4g#</	sf
8FF#\J	.	.	.
=96	=96	=96	=96
(>8.EE\L)	.	4r<	.
16DD#\Jk	.	.	.
!	!	!	!LO:DY:a
8EE\L)	.	4G#</ 4c#</ 4e</ 4g#</	sf
8CC#'>\J	.	.	.
=97	=97	=97	=97
(>8..DD#\L	.	4r<	.
32CC#\Jkk	.	.	.
8DD#'>\L)	.	4G#</ 4B#X</ 4d#</ 4g#</	.
8GGG#'>\J	.	.	.
=98	=98	=98	=98
*8ba	*	*	*
!	!	!LO:TX:t=P:problem:ten takt oznaczony jako "bis"	!
(>8..CC#\Lyy	.	4ryy	.
32BBB#X\Jkkyy	.	.	.
8CC#'>\L)yy	.	4G#yy/ 4c#yy 4eyy 4g#yy	.
8GGG#'>\Jyy	.	.	.
=99	=99	=99	=99
(>8..CC#\L	.	4r	.
32BBB#X\Jkk	.	.	.
!	!	!LO:TX:a:t=bis:rj	!
!	!	!LO:TX:b:i:t=ritardando e diminuendo	!
8CC#'>\L)	.	4G#/ 4c#/ 4e/ 4g#/	.
8GGG#'>\J	.	.	.
=100	=100	=100	=100
(>8CC#\L	.	4r	.
8BBB#X\	.	.	.
8CC#\	.	4G#/ 4c#/ 4e/ 4g#/	.
8AAA\J)	.	.	.
=101	=101	=101	=101
(>8..GGG#\L	.	4r<	.
32FFF##X\Jkk	.	.	.
8GGG#\L)	.	4E</ 4G#</ 4c#</ 4e</	.
!LO:TX:a:t=|:problem	!	!	!
8EEE\J	.	.	.
=102	=102	=102	=102
(>8GGG#\L	.	4r<	.
8FFF##X\	.	.	.
8GGG#\	.	4E</ 4G#</ 4c#</ 4e</	.
8FFF#X\J)	.	.	.
*X8ba	*	*	*
=103!|:	=103!|:	=103!|:	=103!|:
*8ba	*	*	*
*^	*	*	*
!	!	!	!LO:TX:a:t=Vivo e energico	!
8r	4EEE\	.	8r	.
*X8ba	*	*	*	*
8BB\	.	.	8BB<^>/ 8G#</ 8B</	.
*v	*v	*	*	*
*8ba	*	*	*
*^	*	*	*
8ryy	4EEE\	.	(>8BB</L 8A</ 8B</	.
*X8ba	*	*	*	*
8BB\	.	.	16C#</L 16A</ 16c#</	.
.	.	.	16D#</JJ 16d#</	.
*v	*v	*	*	*
=104	=104	=104	=104
*8ba	*	*	*
*^	*	*	*
8r	2EEE\	.	8E</L) 8G#</ 8e</	.
*X8ba	*	*	*	*
!LO:TX:t=P:problem:4\middle	!	!	!	!
4BB\	.	.	8G#</J 8g#</	.
.	.	.	4B^>/ 4g#/ 4b/	.
8BB\	.	.	.	.
*v	*v	*	*	*
=105	=105	=105	=105
*8ba	*	*	*
*^	*	*	*
8r	2EEE\	.	(>8.c#/L 8.a/ 8.cc#/	.
*X8ba	*	*	*	*
4BB\	.	.	.	.
.	.	.	16B/K 16g#/ 16b/	.
!	!	!	!	!LO:DY:rj
.	.	.	8c#/ 8a/ 8cc#/	sf
8BB\	.	.	8A/J 8f#/ 8a/	.
*v	*v	*	*	*
=106	=106	=106	=106
*8ba	*	*	*
*^	*	*	*
8r	4EEE\	.	8F#/L 8d#/ 8f#/	.
*X8ba	*	*	*	*
8BB\	.	.	8F#/J 8d#/ 8f#/	.
*v	*v	*	*	*
*8ba	*	*	*
*^	*	*	*
8r	4EEE\	.	4c#/) 4a/ 4cc#/	.
*X8ba	*	*	*	*
8BB/	.	.	.	.
*v	*v	*	*	*
!!LO:LB:g=original
=107	=107	=107	=107
*8ba	*	*	*
*^	*	*	*
8r	2EEE\	.	8B/L 8g#/ 8b/	.
*X8ba	*	*	*	*
8BB/	.	.	8G#/J 8e/ 8g#/	.
!	!	!	!	!LO:DY:rj
8r	.	.	8E/L 8G#/ 8e/	ff
8BB/	.	.	8A/J 8c#/ 8a/	.
*v	*v	*	*	*
=108	=108	=108	=108
*8ba	*	*	*
*^	*	*	*
8r	2EEE\	.	8G#/L 8B/ 8g#/	.
*X8ba	*	*	*	*
!	!	!	!	!LO:HP:a
4BB\	.	.	8E#X/ 8G#/ 8e#X/	>
.	.	.	8F#/ 8A/ 8f#/	.
!LO:TX:t=P:problem:8\middle	!	!	!	!
8BBB\	.	.	8C#/J 8c#/	]
*v	*v	*	*	*
=109	=109	=109	=109
*8ba	*	*	*
*^	*	*	*
!	!	!	!LO:TX:a:t=poco	!
8r	2EEE\	.	8r	.
*X8ba	*	*	*	*
8BB\	.	.	8BB</ 8G#</ 8B</	.
8r	.	.	8BB</L 8A</ 8B</	.
!	!	!	!	!LO:HP:a:i:t=crescendo
8BB\	.	.	16C#</L 16A</ 16c#</	<
.	.	.	16D#</JJ 16d#</	.
*v	*v	*	*	*
=110	=110	=110	=110
*8ba	*	*	*
*^	*	*	*
8r	2EEE\	.	8E</L 8G#</ 8e</	.
*X8ba	*	*	*	*
8BB\	.	.	8G#</J 8g#</	.
8r	.	.	4B/ 4g#/ 4b/	.
8BB\ 8E\ 8G#\ 8B\	.	.	.	.
*v	*v	*	*	*
=111	=111	=111	=111
*8ba	*	*	*
*^	*	*	*
8r	2EEE\	.	8r	.
*X8ba	*	*	*	*
(>8BB/	.	.	8B/ 8a/ 8b/	.
4D#/) 4F#/ 4B/	.	.	8B/L 8a/ 8b/	.
!	!	!	!LO:TX:b:i:t=piu	!
.	.	.	16c#/L 16cc#/	.
.	.	.	16d#/JJ 16dd#/	.
*v	*v	*	*	*
=112	=112	=112	=112
*8ba	*	*	*
*^	*	*	*
!	!	!	!	!LO:HP:i:t=cres
8r	2EEE\	.	8e\L 8ee\	<
*X8ba	*	*	*	*
(>8BB/	.	.	8g#\J 8gg#\	.
4E/) 4G#/ 4B/	.	.	8b\L 8bb\	.
.	.	.	8ee\J 8gg#\	.
=113	=113	=113	=113	=113
*	*^	*	*	*
8r	8ryy	[<2FFF#\ [<2FF#\	.	8r	.
!	!	!	!	!	!LO:DY:rj
8G##X/L 8B#X/	[<8F#\	.	.	8b#X\L 8gg##X\ 8bb#X\	fff <
8A#X/ 8c#/	4F#\_<	.	.	8cc#\ 8aa#X\ 8ccc#\	.
8B#/J 8d#/	.	.	.	8dd#\J 8bb#\ 8ddd#\	.
=114	=114	=114	=114	=114	=114
!	!LO:TX:t=P:problem:4\middle	!	!	!LO:TX:t=P:problem:all\middle:global	!
8c#/L 8e/	4F#\]	2FFF#\] 2FF#\]	.	8ee\L 8aa\ 8ccc#\	.
8d#/J 8f#/	.	.	.	8ff#\J 8bb\ 8ddd#\	.
!LO:TX:t=P:problem:4\right	!	!	!	!	!
4A#X\ 4c#\ 4e\	4ryy	.	.	[<4gg#\ [<\4eee [>\4ggg#	[
*	*v	*v	*	*	*
=115	=115	=115	=115	=115
8r	[<2FFF#\ [<\2FF#	.	8gg#\L] 8eee\] 8ggg#\]	.
8c#\ 8e\	.	.	8ee\J 8ccc#\ 8eee\	fff
*	*	*	*8va	*
4A#X\ 4e\ 4g#\	.	.	4gg#\ 4eee\ 4ggg#\	.
*v	*v	*	*	*
*	*	*X8va	*
=116	=116	=116	=116
*^	*	*	*
[<8A#X\L 8c#\ 8e\	4.FFF#\] 4.FF#\]	.	8ee\L 8ccc#\ 8eee\	.
8A#\J_< [<\8e [>\8g#	.	.	[<8gg#\J [<\8eee [<\8ggg#	fff
4A#;>\] 4e\] 4g#\]	.	.	4gg#;>\] 4eee\] 4ggg#\]	.
.	[<8FFF#\ [>\8FF#	.	.	.
=117	=117	=117	=117	=117
[<2A#X\ [>\2e [>\2g#	2FFF#\_< 2FF#\_>	.	8..gg#\L 8..eee\ 8..ggg#\	.
!	!	!	!LO:TX:b:i:t=vivo. a leggiero	!
.	.	.	32ddd#\Jkk 32fff##X\	.
.	.	.	8eee\L 8ggg#\	.
.	.	.	8ccc#\J 8eee\	.
!!LO:LB:g=original
=118	=118	=118	=118	=118
2A#\_< 2e\_< 2g#\_>	2FFF#\_< 2FF#\_<	.	8aa#X\L 8ccc#\	.
.	.	.	8ff#\ 8aa#\	.
!	!	!	!LO:TX:t=P:problem:all\left:global	!
.	.	.	8ee\ 8gg#\	.
.	.	.	8cc#\J 8ee\	.
=119	=119	=119	=119	=119
2A#\] 2e\] 2g#\]	2FFF#\_< 2FF#\_<	.	(>8..ee\L 8..gg#\	.
.	.	.	32dd#\Jkk 32ff##X\	.
.	.	.	8ee'>\L) 8gg#\	.
.	.	.	8cc#'>\J 8ee\	.
=120	=120	=120	=120	=120
2r	2FFF#\] 2FF#\]	.	8a#X'>/L 8cc#/	.
.	.	.	8f#'>/J 8a#/	.
.	.	.	4e^>/ 4g#/	.
=121	=121	=121	=121	=121
[<2A#X:\ [<\2e: [>\2g#:	[<2FFF#:\ [<\2FF#:	.	(>8..ee\L 8..gg#\	.
.	.	.	32dd#\Jkk 32ff##X\	.
!	!	!	!	!LO:DY:a:t=pianisſ&colon;
.	.	.	8ee\L) 8gg#\	pp
!	!	!	!LO:TX:a:t=|:problem	!
.	.	.	8cc#\J 8ee\	.
=122	=122	=122	=122	=122
4A#\] 4e\] 4g#\]	2FFF#\_< 2FF#\_<	.	8a#X'>\L 8cc#\	.
.	.	.	8f#'>\J 8a#\	.
!	!	!	!	!LO:DY:t=pp.
4r	.	.	8e'>/L 8g#/	pp
.	.	.	8c#'>/J 8e/	.
=123	=123	=123	=123	=123
2r	2FFF#\_< 2FF#\_>	.	(<8..e/L 8..g#/	.
.	.	.	32d#/Jkk 32f##X/	.
.	.	.	8e'>/L) 8g#/	.
.	.	.	8c#'>/J 8e/	.
*v	*v	*	*	*
=124	=124	=124	=124
8FFF#\] 8FF#\]	.	[<4A#X/ 4c#/	.
4FF#\	.	.	.
!	!	!LO:TX:b:i:t=rit	!
.	.	4A#;>/] 4e/ 4g#/	.
8FFF#;>\ 8CC#\	.	.	.
=125	=125	=125	=125
!	!	!LO:TX:a:t=Tempo I°	!
8BBB\L	.	8r	.
!	!	!	!LO:DY:t=piano
8BB\	.	8G#/ 8B/	p
!LO:TX:t=P:problem:8\right	!	!	!
8BBB\	.	(>8B/L	.
!	!	!LO:TX:b:i:t=piu lento	!
8BB\J	.	16c#/L	<
.	.	16d#/JJ	.
=126	=126	=126	=126
*	*	*^	*
!LO:TX:t=P:problem:8\right	!	!	!	!
8BBB\	.	8e/L	4G#	.
4BB\	.	8g#/J	.	.
.	.	4g#/) 4b/	4ryy	[
8B\	.	.	.	.
*	*	*v	*v	*
=127	=127	=127	=127
!LO:TX:t=P:problem:8\right	!	!	!
(>8BBB'>\L	.	(>8a/L 8cc#/	>
8BB\J	.	8a/J 8cc#/	.
4B\)	.	8cc#\L 8ee\	.
.	.	16b\L 16dd#\	.
.	.	16a\JJ) 16cc#\	]]
!!LO:PB:g=original
=128	=128	=128	=128
8BBB\L	.	8g#/ 8b/	.
!LO:TX:t=P:problem:8\right	!	!	!
8BB\	.	(>4g#\ 4ee\	.
8BBB\	.	.	.
8BB\J	.	8e/) 8g#/	.
=129	=129	=129	=129
*	*	*^	*
8BBB\L	.	(>8c#/L 8a/	4.ryy	.
!LO:TX:t=P:problem:8\middle	!	!	!	!
8BB\	.	8e/J 8b/	.	.
8BBB\	.	8a\L 8cc#\	.	.
!LO:TX:t=P:problem:8\right	!	!	!	!
8B\J	.	16d#\L 16b	16b/LL	.
.	.	16f#\JJ 16a	16a/JJ	.
=130	=130	=130	=130	=130
!	!	!LO:TX:a:t=poco e poco ritardando	!	!
8BB\L	.	[<8e/) [</8g#	8ryy	.
8B\J	.	4e\] 4g#\]	(>4ee^>/	.
4BBB\	.	.	.	.
.	.	8B/ 8e/ 8g#/)	8ryy	.
=131	=131	=131	=131	=131
8BB\L	.	[>8e/L 8a/	8cn\L	.
!LO:TX:t=P:problem:8\right	!	!	!	!
8BBB\J	.	8b/J	8B\J 8e\]	.
4BB\	.	8ccn/L	8A\L [>\8e	.
.	.	16b/L	8c\J 8e\]	.
.	.	16a/JJ	.	.
*	*	*v	*v	*
=132	=132	=132	=132
4BBB\	.	(>8B/ 8e/ 8g#/	.
!	!	!	!LO:DY:a:t=piano
.	.	(>4bb^>/)	p
8BB\L	.	.	.
8B\J	.	8B/) 8e/ 8g#/	.
=133	=133	=133	=133
4BB\	.	8cn/ 8e/ 8a/	.
!	!	!LO:TX:a:t=P:problem:?	!
!	!	!LO:TX:b:i:t=ritenuto	!
.	.	(>8c/L [>/8d# 8a/	.
4BBB\	.	8B/ 8d#/_> 8g#/	.
.	.	8A/J 8d#/] 8f#/	.
=134	=134	=134	=134
*^	*	*^	*
!	!	!LO:DY:b:t=piano	!LO:TX:a:t=Allegretto.	!	!
8r	2EE\	p	[>2e/)	4G#\	.
4BB/	.	.	.	.	.
!	!LO:TX:b:i:t=e	!	!	!LO:TX:t=P:problem:8\right	!
.	.	.	.	8A\L	.
!	!	!	!	!LO:TX:t=P:problem:all\middle:global	!
8BB/	.	.	.	8F#\J	.
=135	=135	=135	=135	=135	=135
8r	2EE\	.	2e/_>	8G#\L	.
!LO:TX:b:i:t=poco	!	!	!	!	!
4BB/	.	.	.	8G#\J	.
.	.	.	.	8A\L	.
8BB/	.	.	.	8F#\J	.
=136	=136	=136	=136	=136	=136
8r	2EE\	.	2e/_>	8G#\L	.
!LO:TX:b:i:t=morendo	!	!	!	!LO:TX:t=P:problem:8\right	!
4BB/	.	.	.	8B\J	.
.	.	.	.	16A\LL	.
.	.	.	.	16G#\J	.
8BB/	.	.	.	8F#\J	.
=137	=137	=137	=137	=137	=137
8r	2EE\	.	2e/]	8G#\L	.
!	!	!	!	!LO:TX:t=P:problem:8\right	!
4BB/	.	.	.	8E\J	.
!	!	!	!LO:TX:b:i:t=rit.	!	!
.	.	.	.	4F#\	.
8BB/	.	.	.	.	.
!!LO:LB:g=original
=138	=138	=138	=138	=138	=138
*	*^	*	*	*	*
[>4G#/	8r	2EE\	.	[>2e/	4B\	.
.	8BB/	.	.	.	.	.
!	!	!	!	!	!	!LO:DY:rj:t=pp.
8G#/L]	8r	.	.	.	8cn\L	pp
8A/J	8Cn\	.	.	.	8A\J	.
*	*v	*v	*	*	*	*
=139	=139	=139	=139	=139	=139
!	!	!	!	!LO:TX:t=P:problem:all\right:global	!
8r	2EE\	.	2e/_>	8B\L	.
8BB/ 8G#/	.	.	.	8B\J	.
!LO:TX:b:i:t=morendo	!	!	!	!LO:TX:a:t=morendo.	!
8r	.	.	.	8cn\L	.
8Cn/ 8A/	.	.	.	8A\J	.
=140	=140	=140	=140	=140	=140
!	!	!LO:HP:a	!	!	!
8r	2EE\	>	2e/_>	8B\L	.
8BB/ 8G#/	.	.	.	8dn\J	.
8r	.	.	.	16cn\LL	.
.	.	.	.	16B\J	.
!	!	!	!	!LO:TX:t=P:problem:8\middle	!LO:DY:a:t=pp.
8Cn/ 8F#/	.	.	.	8F#\J	pp
=141	=141	=141	=141	=141	=141
!	!	!	!	!	!LO:HP:a
8r	2EE\	.	2e/]	8B\L	>
8BB/ 8E/	.	.	.	8G#\	.
8r	.	.	.	8A\	.
8Cn/ 8E/	.	.	.	8F#\J	.
=142	=142	=142	=142	=142	=142
*ped	*	*	*	*	*
!	!LO:TX:t=P:problem:4\middle:global	!	!	!	!
[>4E/	4EE\ 4BB\	]	[>2e/	2G#\	]
*v	*v	*	*	*	*
*	*8ba	*	*	*
*^	*	*	*	*
4E^>/]	4EE\ 4BB\	.	.	.	.
*v	*v	*	*	*	*
*	*	*v	*v	*
*	*X8ba	*	*
=143	=143	=143	=143
*^	*	*	*
[>8qG#	.	.	.	.
!	!	!	!	!LO:HP:t=crescend.
2G#/] 2E/	4EE\ 4BB\	.	2e/]	<
*	*8ba	*	*	*
.	4EEE^>\ 4BBB\	.	.	.
*	*X8ba	*	*	*
=144	=144	=144	=144	=144
[>8qG#/	.	.	.	.
!	!	!	!	!LO:DY:t=forte
4E^>/ 4G#/]	4EE\ 4BB\	.	2e/	f
[8qG#/	.	.	.	.
*v	*v	*	*	*
*	*8ba	*	*
*^	*	*	*
[<4E^>/ 4G#/_>	[<4EE\ [<\4BB	.	.	.
*	*X8ba	*	*	*
*v	*v	*	*	*
=145	=145	=145	=145
*^	*	*^	*
*ped	*	*	*	*	*
2E/_< 2G#/_>	2EE\_< 2BB\_>	.	[<2ee/ [>/2eee	[<2e\	sf
=146	=146	=146	=146	=146	=146
!	!	!	!	!	!LO:DY:rj
2E/_< 2G#/_>	2EE\_< 2BB\_>	.	2ee/_< 2eee/_>	2e\_<	sff
=147	=147	=147	=147	=147	=147
!	!	!	!	!LO:TX:t=P:problem:4\middle	!
4E;>/] 4G#/]	4EE\] 4BB\]	.	4ee;>/] 4eee/]	4e\]	.
!	!	!	!LO:TX:b:i:t=20 Lutego 1881.	!	!
*Xped	*	*	*	*	*
4r	4r	.	4r	4r	.
*v	*v	*	*	*	*
*	*	*v	*v	*
==	==	==	==
*-	*-	*-	*-
!!!system-decoration: [(g1)]
!!!ENC: Anastazja Marusiak
!!!RDF**dynam: < = "cres", fontstyle="italic"
!!!END: 2021-11-06
!!!EED: Jędrzej Mróz
!!!ESR: 2021-11-09
!!!RDF**kern: > = above
!!!RDF**kern: < = below
